X: 105
T:Noisy Curlew
M:C
L:1/8
S:Eileen Ivers & Seamus Egan
D:Dear old Erins Isle, Eileen Ivers  Seamus Egan;
D:Corner House
K:D
|: DF ~F2 DG ~G2 | DF ~F2 E2 FE| DF ~F2 ABde | fdAF GEFE|
DF ~F2 DG ~G2| DF ~F2 E2 FE | DF ~F2 ABde| fdAF GEFE :|
|: fgaf (3ggg ag | fgaf gf e2 | fgaf g2 fa  | gdAF GE D2 |
fgaf (3ggg ag | fgaf gf ea | gdAF G2  a2  | gdAF GE D2 :|
